X:150
T:An Spailp\'in F\'anach
R:hornpipe
Z:id:hn-hornpipe-150
M:C|
L:1/8
K:G
gf | efed B2BA | GABG E2EF | G2GF GABc | dedc B2gf |
efed BcBA | GABG E3G | FGAF DEFA | G2GF G2 :|
|: GA | Bdef g2fg | agfe d2Bd | edef gfed | e2f2 g2fg |
efed BcBA | GABG E3G | FGAF DEFA | G2GF G2 :|

